svgs/light/circle-e.svg

<svg xmlns="http://www.w3.org/2000/svg" viewBox="0 0 512 512"><!--! Font Awesome Pro 6.6.0 by @fontawesome - https://fontawesome.com License - https://fontawesome.com/license (Commercial License) Copyright 2024 Fonticons, Inc. --><path d="M256 32a224 224 0 1 1 0 448 224 224 0 1 1 0-448zm0 480A256 256 0 1 0 256 0a256 256 0 1 0 0 512zM192 128c-17.7 0-32 14.3-32 32l0 96 0 96c0 17.7 14.3 32 32 32l144 0c8.8 0 16-7.2 16-16s-7.2-16-16-16l-144 0 0-80 112 0c8.8 0 16-7.2 16-16s-7.2-16-16-16l-112 0 0-80 144 0c8.8 0 16-7.2 16-16s-7.2-16-16-16l-144 0z"/></svg>

<svg xmlns="http://www.w3.org/2000/svg" viewBox="0 0 512 512"><!--! Font Awesome Pro 6.5.2 by @fontawesome - https://fontawesome.com License - https://fontawesome.com/license (Commercial License) Copyright 2024 Fonticons, Inc. --><path d="M256 32a224 224 0 1 1 0 448 224 224 0 1 1 0-448zm0 480A256 256 0 1 0 256 0a256 256 0 1 0 0 512zM192 128c-17.7 0-32 14.3-32 32v96 96c0 17.7 14.3 32 32 32H336c8.8 0 16-7.2 16-16s-7.2-16-16-16H192V272H304c8.8 0 16-7.2 16-16s-7.2-16-16-16H192V160H336c8.8 0 16-7.2 16-16s-7.2-16-16-16H192z"/></svg>
